X: 635
T: Beauty in Tears
B: O'Neill's 635
Z: 1999 by John Chambers <jc@eddie.mit.edu> http://eddie.mit.edu/~jc/music/abc/
N: "Moderate"
M: 3/4
L: 1/8
K:D
A2 \
| (d2 f2 a2) | (f2 d2 B2) | (efgfed) | (fedcBA) \
| d2 (fdec) | d2 B2 G2 | A2 B2 c2 | d6 :|
|| (d2 f2 a2) | (d'2 a2 f2) | (edefga) | (b2 g2 e2) \
| (dcdefg) | a2 (gfed) | (e2 a2 ^g2) | (a4 f2) |
| (f2 d2 B2) | (B2 c2 d2) | (efgfed) | (fedcBA) \
| d2 (fdec) | d2 B2 G2 | A2 B2 c2 | d4 |]


